!!!!SEGMENT: pl-wn--mus-iii-123-982--001_wieniawski-henryk--l-ecole-moderne-etudes-caprices-pour-violon-seul-op-10-1-le-sautille.krn
!!!cenid: 18xx:3814
!!!COM: Wieniawski, Henryk
!!!COM-rismID: pe137176
!!!CDT: 1835/07/10-1880/03/31
!!!CNT:
!!!GTL: L'école moderne.Etudes-caprices pour violon seul op. 10
!!!OTL: 1. Le Sautille
!!!OMV: 001
!!!PDT:
!!!AGN:
!!!SMS-siglum: PL-Wn
!!!SMS-shelfmark: Mus.III.123.982
!!!SMS-shelfwork: 001-001 G
!!!SMS-variant:
!!!SMS-altvar:
!!!NIFC-rismSourceID:
!!!NIFC-rismChildID:
!!!NIFC-islandoraID: none
!!!URL-pdf-islandora:
!!!URL-scan: https://polona.pl/item/l-ecole-moderne-etudes-caprices-pour-violon-seul-op-10,MTE2OTgzMTMy/4 @EN{Scan on Polona} @PL{Skany w portalu Polona}
!!!ONB-nifc:
!!!OMD: Presto.
!!!OMD-mod: Presto
!!!AIN: 1 violn
!!!key: c
**kern	**fing
*I"[Violon seul]	*
*I'	*
*Ivioln	*
*ICstr	*
*IGsolo	*
*mI"Violino	*
*mI'vn	*
*clefG2	*
*k[b-e-a-]	*
*c:	*
*M4/4	*
*met(c)	*
=1	=1
*xywh-3:84,254,3846,1464	*
(16c'/LL	.
16G'/	.
16c'/)	.
16e-`/JJ	.
16d`/LL	.
16g`/	.
16G`/	.
16d`/JJ	.
(16c'/LL	.
16G'/	.
16c'/)	.
16e-`/JJ	.
16d`/LL	.
16g`/	.
16G`/	.
16d`/JJ	.
=2	=2
(16c'/LL	.
16c'/	.
16d'/)	.
16e-`/J	.
16f`/L	.
16g`/	.
16an`/	.
16bn`/JJ	.
(16cc'\LL	.
16dd'\	.
16ee-'\)	.
16ff`\JJ	.
16gg`\LL	.
16ee-`\	.
16dd`\	3
16cc`\JJ	.
=3	=3
(16bn'\LL	.
16g'\	.
16b'\)	.
16dd`\JJ	.
16cc`\LL	.
16ee-`\	.
16an`\	.
16cc`\JJ	.
(16b'\LL	.
16g'\	.
16b'\)	.
16dd`\JJ	.
16cc`\LL	.
16ee-`\	.
16a`\	.
16cc`\JJ	.
=4	=4
*xywh-3:96,1649,3718,464	*
(16bn'\LL	.
16gg'\	.
16ff#X'\)	.
16gg`\JJ	.
16aa-X`\LL	.
16gg`\	.
16ffn`\	.
16ee-`\J	.
(16dd'\L	.
16cc'\	.
16b'\)	.
16a-`\J	.
16g`\L	.
16f`\	.
16e-`\	.
16d`\JJ	.
=5	=5
(16c'/LL	1
16G'/	.
16c'/)	.
16e-`/JJ	.
16d`/LL	.
16g`/	.
16G`/	.
16d`/JJ	.
(16c'/LL	.
16G'/	.
16c'/)	.
16e-`/JJ	.
16d`/LL	.
16g`/	.
16G`/	.
16d`/JJ	.
=6	=6
(16c'/LL	.
16c'/	.
16d'/)	.
16e-`/J	.
16f`/L	.
16g`/	.
16an`/	.
16bn`/JJ	.
(16cc'\LL	.
16dd'\	.
16ee-'\)	.
16ff`\JJ	.
16gg`\LL	.
16ee-`\	.
16dd`\	.
16cc`\JJ	.
=7	=7
*xywh-3:154,2031,3604,439	*
(16b-X'\LL	.
16aa-X'\	.
16gg'\)	.
16ff`\J	.
16ee-`\L	.
16dd`\	.
16cc`\	.
16b-`\JJ	.
(16gg'\LL	.
16ee-'\	.
16b-'\)	.
16g`\JJ	.
16b-`/LL	.
16a-`/	.
16f`/	.
16d`/JJ	.
=8	=8
(16e-'\LL	.
16g'\	.
16b-'\)	.
16ee-`\JJ	.
16gg`\LL	.
16ee-`\	.
16b-`\	.
16g`\JJ	.
(16e-'/LL	.
16g'/	.
16f'/)	.
16e-`/J	.
16d`/L	.
16f`/	.
16e-`/	.
16d`/JJ	.
=9	=9
(16c'/LL	.
16G'/	.
16c'/)	.
16e-`/JJ	.
16d`/LL	.
16g`/	.
16G`/	.
16d`/JJ	.
(16c'/LL	.
16G'/	.
16c'/)	.
16e-`/JJ	.
16d`/LL	.
16g`/	.
16G`/	.
16d`/JJ	.
=10	=10
*xywh-3:147,2451,3693,445	*
(16c'/LL	.
16c'/	.
16d'/)	.
16e-`/J	.
16f`/L	.
16g`/	.
16an`/	.
16bn`/JJ	.
(16cc'\LL	.
16dd'\	.
16ee-'\)	.
16ff`\J	.
16gg`\L	.
16ee-`\	.
16dd`\	.
16cc`\JJ	.
=11	=11
(16bn'\LL	.
16g'\	.
16b'\)	.
16dd`\JJ	.
16cc`\LL	.
16ee-`\	.
16an`\	.
16cc`\JJ	.
(16b'\LL	.
16g'\	.
16b'\)	.
16dd`\JJ	.
16cc`\LL	.
16ee-`\	.
16a`\	.
16cc`\JJ	.
=12	=12
(16bn'\LL	.
16gg'\	.
16ff#X'\)	.
16gg`\JJ	.
16aa-X`\LL	.
16gg`\	.
16ffn`\	.
16ee-`\J	.
(16dd'\L	.
16cc'\	.
16b'\)	.
16a-`\J	.
16g`\L	.
16f`\	.
16e-`\	.
16d`\JJ	.
=13	=13
*xywh-3:160,2846,3642,426	*
(16c'/LL	.
16G'/	.
16c'/)	.
16e-`/JJ	.
16d`/LL	.
16g`/	.
16G`/	.
16d`/JJ	.
(16c'/LL	.
16G'/	.
16c'/)	.
16e-`/JJ	.
16d`/LL	.
16g`/	.
16G`/	.
16d`/JJ	.
=14	=14
(16c'/LL	.
16c'/	.
16d'/)	.
16e-`/J	.
16f`/L	.
16g`/	.
16an`/	.
16bn`/JJ	.
(16cc'\LL	.
16dd'\	.
16ee-'\)	.
16ff`\J	.
16gg`\L	.
16ee-`\	.
16dd`\	.
16cc`\JJ	.
=15	=15
(16b-X'\LL	.
16aa-X'\	.
16gg'\)	.
16ff`\J	.
16ee-`\L	.
16dd`\	.
16cc`\	.
16b-`\JJ	.
(16gg'\LL	.
16ee-'\	.
16b-'\)	.
16g`\JJ	.
16b-`/LL	.
16a-`/	.
16f`/	.
16d`/JJ	.
=16	=16
*xywh-3:160,3209,3553,426	*
(16e-'\LL	.
16g'\	.
16b-'\)	.
16ee-`\JJ	.
16gg`\LL	.
16ee-`\	.
16b-`\	.
16g`\JJ	.
(16e-'/LL	.
16en'/	.
16f'/)	.
16f#X`/J	.
16g`/L	.
16g#X`/	.
16a-`/	.
16b-X`/JJ	.
=17	=17
(16bn'\LL	.
16g'\	.
16b'\)	.
16dd`\JJ	.
16cc`\LL	.
16gg`\	.
16ee-`\	.
16cc`\JJ	.
(16b'\LL	.
16g'\	.
16b'\)	.
16dd`\JJ	.
16cc`\LL	.
16gg`\	.
16ee-`\	.
16cc`\JJ	.
=18	=18
(16aa-'\LL	.
16gg'\	.
16ff'\)	.
16ee-`\J	.
16dd`\L	.
16cc`\	.
16bn`\	.
16cc`\JJ	.
(16b'\LL	.
16gg'\	.
16ff#X'\)	.
16gg`\JJ	.
16g`/LL	.
16fn`/	.
16e-`/	.
16d`/JJ	.
=19	=19
*xywh-3:147,3597,3553,452	*
(16c'/LL	.
16G'/	.
16c'/)	.
16e-`/JJ	.
16d`/LL	.
16g`/	.
16G`/	.
16d`/JJ	.
(16c'/LL	.
16G'/	.
16c'/)	.
16e-`/JJ	.
16d`/LL	.
16g`/	.
16G`/	.
16d`/JJ	.
=20	=20
(16c'/LL	.
16e-'/	.
16d'/)	.
16c`/JJ	.
16f`/LL	.
16a-`/	.
16cc`/	.
16a-`/JJ	.
(16B-'/LL	1
16d'/	.
16c'/)	.
16B-`/JJ	.
16e-`/LL	.
16g`/	.
16b-`/	4
16g`/JJ	.
=21	=21
(16A-'/LL	.
16c'/	.
16B-'/)	.
16A-`/JJ	.
16d`/LL	.
16f`/	.
16a-`/	.
16f`/JJ	.
(16dd'/LL	.
16cc'/	.
16bn'/)	.
16a-`/J	.
16g`/L	.
16f`/	.
16e-`/	.
16d`/JJ	.
=22	=22
*xywh-3:135,4030,3693,388	*
(16g'\LL	.
16cc'\	.
16ee-'\)	.
16ee-`\JJ	.
(16a-'\LL	.
16cc'\	.
16ee-'\)	.
16ee-`\JJ	.
(16g'\LL	.
16cc'\	.
16ee-'\)	.
16ee-`\JJ	.
(16f#X'\LL	3
16cc'\	.
16ee-'\)	.
16ee-`\JJ	.
=23	=23
(16g'\LL	.
16cc'\	.
16ee-'\)	.
16ee-`\JJ	.
(16a-'\LL	.
16cc'\	.
16ee-'\)	.
16ee-`\JJ	.
(16g'\LL	.
16cc'\	.
16ee-'\)	.
16ee-`\JJ	.
(16f#X'\LL	.
16cc'\	.
16ee-'\)	.
16ee-`\JJ	.
=24	=24
(16g'\LL	.
16cc'\	.
16ee-'\)	.
16cc`\J	.
16gg`\L	.
16ee-`\	.
16dd`\	.
16cc`\JJ	.
(16g'\LL	.
16bn'\	.
16dd'\)	.
16b`\JJ	.
16gg\LL	.
16ff\	.
16ee-`\	.
16dd`\JJ	.
=25	=25
*xywh-3:116,4393,3718,655	*
(16cc'\LL	.
16g'\	.
16cc'\)	.
16ee-`\JJ	.
16dd`\LL	.
16gg\	.
16g`\	.
16dd`\JJ	.
(16c'/LL	1
16G'/	.
16c'/)	.
16e-`/JJ	.
16d`/LL	.
16g`/	.
16G`/	.
16d`/JJ	.
=26	=26
(16c'/LL	.
16cc'/	.
16g'/)	.
16e-`/JJ	.
16c`/LL	.
16c`/	.
16G`/	.
16G`/JJ	.
(16c'/LL	.
16c'/	.
16c'/)	.
16c`/JJ	.
16c`/LL	.
16c`/	.
16c`/	.
(>16c`/JJ	.
=27	=27
4ccc 4ee- 4g 4c/)	.
4r	.
2r;	.
==	==
*-	*-
!!!system-decoration: [(s1)]
!!!RDF**kern: > = above
!!!RDF**kern: < = below
!!!filter-modern: sic -sq  | autostem -r  | modori -m
!!!ENC: Katarzyna Serwa
!!!END: 2022-05-18
!!!ENC: Berenika Jozajtis
!!!END: 2022-05-06
!!!ENC-modern: Andrzej Borzym
!!!END-modern: 2022-07-20
!!!IIIF: https://polona.pl/iiif/item/MTE2OTgzMTMy/manifest.json
!!!ENC-iiif: Natalia Wrzos
!!!END-iiif: 2022-08-30
!!!YEC: Copyright 2022 Narodowy Instytut Fryderyka Chopina (https://polishscores.org)
!!!YEM: License CC-BY-4.0 (https://creativecommons.org/licenses/by/4.0)
